X:1
T:Title
%%score { 1 | 2 }
L:1/8
Q:1/4=92
M:2/4
K:G
V:1 treble nm="Grand Piano"
V:2 bass 
V:1
 [DGB][DGB] [CFA][B,EG] | [CDF][G,CE] [G,B,D]2 | [A,DF][FA] [FA]2 | GB B2 | BB AG | %5
w: W.~H.~Doane * * *|||||
 [DF][CE] [B,D][B,D] | EG FA | [B,DG]4 | [FA]2 [FA]2 | [FA][=F^G] [^FA]2 | B2 B2 | B_B =B2 | %12
w: |||||||
 [G^c][Gc] [GB][Gc] | [Fd][FA] AG | F2 [^CE]2 | D4 | BB AG | [DF][CE] [B,D]2 | [DF][FA] [FA]2 | %19
w: |||||||
 GB B2 | BB AG |[M:5/8] [DF][CE] [Ec]3 |[M:2/4] BA GF | [B,DG]4 |] %24
w: |||||
V:2
 G,G, D,E, | C,C, G,,2 | D,[D,D] [D,D]2 | [G,B,D][G,DG] [G,DG]2 | %4
 [G,DG][G,DG][K:bass] [G,CD][G,B,D] | [C,G,][C,G,] [G,,G,][G,,G,] | [C,G,C][D,B,D] [D,A,D][D,CD] | %7
 G,,4 | [D,D]2 [D,D]2 | [D,D][D,D] [D,D]2 | [G,DG]2 [G,DG]2 | [G,DG][G,^CG] [G,DG]2 | %12
 [E,A,][E,A,] [E,A,][E,A,] | [D,A,][D,D] [F,A,D][G,B,E] | [A,D]2 [A,,G,]2 | [D,F,]4 | %16
 [G,DG][G,DG][K:bass] [G,CD][G,B,D] | [C,C][C,G,] [G,,G,]2 | [D,A,][D,D] [D,D]2 | %19
 [G,B,D][G,DG] [G,DG]2 | [G,DG][G,DG][K:bass] [G,CD][G,B,D] |[M:5/8] [C,C][C,G,] [C,G,]3 | %22
[M:2/4] [D,G,D][D,CD] [D,B,D][D,CD] | G,,4 |] %24

